X:1
T:Carter Lake, 10.10.10.10 D
T:Carter Lake, 10.10.10.10 D
T:Henry Lake Gilmour, 1902
T:Public Domain Courtesy of the Cyber Hymnal™
C:Henry Lake Gilmour, 1902
Z:Public Domain
Z:Courtesy of the Cyber Hymnal™
%%score ( 1 2 ) ( 3 4 )
L:1/8
Q:1/4=100
M:9/8
K:Ab
V:1 treble 
V:2 treble 
V:3 bass 
V:4 bass 
V:1
 [Ec][DG][DB] [CA]3 [CE]3 | [DG][B,D][DF] [DF]3 [CE]3 | [Ec][=D=B][Ec] [Ee]3 [CA]2 [CA] | %3
 [=DA][DB][Dc] [EB]6 | [Ec][DG][DB] [CA]3 [CE]3 | [Ec][Ec][Ec] [_Ge]3 [Fd]3 | %6
 [Ec][DB][CA] [=DB]3 [DF]2 [DA] | [EG]"^rit."[Ec][DB] [CA]6 | [EB][EB][EB] [Ee]3 [EB]3 | %9
 [EB][Ed][EG] [EB]3 [EA]3 | [FA][FA][FA] [Af]3 [Ae]2 [Ae] | [A=d][Ac][AB] e3 _d3 | %12
 [Ec][=D=B][Ec] [CA]3 [CE]3 | [Fd][Fc][Fd] [FB]3 [DF]3 | [=B,A][B,G][B,F] [CE]3 [CA]2 [Fd] | %15
 [Ec]<"^rit."!fermata![CA][DB] [CA]6 |] %16
V:2
 x9 | x9 | x9 | x9 | x9 | x9 | x9 | x9 | x9 | x9 | x9 | x3 G6 | x9 | x9 | x9 | x9 |] %16
V:3
 [A,,E,][A,,E,][A,,E,] [A,,E,]3 [A,,A,]3 | [E,B,][E,G,][E,G,] [A,,A,]3 [A,,A,]3 | %2
 A,A,A, [C,A,]3 [F,A,]2 [F,A,] | [B,,A,][B,,A,][B,,A,] [E,G,]6 | %4
 [A,,E,][A,,E,][A,,E,] [A,,E,]3 [A,,A,]3 | A,A,A, [C,A,]3 [D,A,]3 | %6
 [E,A,][E,G,][F,A,] [B,,F,]3 [B,,B,]2 [B,,B,] | [E,B,][E,A,][E,G,] [A,,A,]6 | %8
 [E,G,][E,G,][E,G,] [G,B,]3 [E,G,]3 | [E,G,][E,B,][E,D] [A,D]3 [A,C]3 | %10
 [F,C][F,C][F,C] [D,D]3 [A,C]2 [A,C] | [F,B,][F,C][B,=D] [E,B,]6 | %12
 [A,,A,][A,,A,][A,,A,] [A,,E,]3 [A,,A,]3 | [D,A,][D,A,][D,A,] [D,A,]3 [D,A,]3 | %14
 [=D,A,][D,A,][D,A,] [E,A,]3 [F,A,]2 [D,A,] | [E,A,]<!fermata![E,A,][E,G,] [A,,E,A,]6 |] %16
V:4
 x9 | x9 | A,A,A, x6 | x9 | x9 | A,A,A, x6 | x9 | x9 | x9 | x9 | x9 | x9 | x9 | x9 | x9 | x9 |] %16

